X:1
T:Title
L:1/8
M:6/8
I:linebreak $
K:G
V:1 treble nm="Voice"
V:1
"G" ed^c d2 B |"C" cBA"G" BAG | DGA BAG |"D" F3"C" E2 e |"C" fe^d e2 c |"D" dcB cAF | DFA ed^c | %7
"G" dBG D2 d |"G" ed^c d2 B |"C" cBA"G" BGD | B,DG Bdf |"D" a2 e ede |"D" fed cAF |"G" EDB, DAf | %14
"D" agf edf |1"G" g3 g2 d :|2"G" g3 gag |:"D" f3 fef | afe fdA |"G" Bgg gfg | bag"A" fed | %21
"D" Aff fef | afe f2 A |"G" BcB"A" AB^c |1"D" def"G" gag :|2"D" def"G" g2 d |] %26
